!!!OTL: 394. Liebe im Mai.
!!!ODT: 1830
!!!ARE: Europa, Mitteleuropa, Deutschland
!!!SCT: E0394
!!!TXL: @@DE
!!!YEM: Copyright 1995, estate of Helmut Schaffrath.
**kern	**text
*ICvox	*
*M6/8	*
*k[b-e-a-]	*
*E-:	*
!LO:TX:a:t=Heiter.	!
!LO:TX:a:t=Mel. v. Joſ. Gersbach (1830).	!
{8b-	Jm
=1	=1
8b-	Mai-
8ee-	-en,
8g	im
8g	Mai-
8b-	-en
8e-	iſts
=2	=2
8g	lieb-
16gL	-lich
16b-J	.
16a-/L	und
16ccJ	.
4b-}	ſchön,
{8B-	da
=3	=3
8e-	findt
8e-	ſich
8g	viel
8g	Kurʒweil
8e-	.
16a-L	und
16gJ	.
=4	=4
[4.f	Wonn'!
8f]	.
8r}	.
{8b-	Die
=5	=5
8.b-/	Nach-
16a-	-ti-
8g	-gall
8f	ſin-
8d}	-get,
{8b-/	die
=6	=6
8.b-/	Ler-
16a-	-che
8g	ſich
8f	ſchwin-
8d}	-get
{8B-	über
=7	=7
4e-	Berg
8e-	und
4g	ü-
8g	-ber
=8	=8
(4.b-	Thal
4ee-)}	.
{16gL	ü-
16a-J	-ber
=9	=9
4b-/	Berg
16e-L	und
16fJ	.
4g	ü-
8f	-ber
=10	=10
[4.e-	Thal.
8e-]	.
8r}	.
==	==
!!!AGN: Liebes - Lied, Jahreszeiten, Fruehling
!!!ONB: ESAC (Essen Associative Code) Database: ERK1
!!!AMT: compound duple
!!!AIN: vox
!!!EED: Helmut Schaffrath
!!!EEV: 1.0
!!!GTL: Liebeslieder [Alte (aus dem 13. bis 17. Jahrh.) mit ihrem jungen Nachwuchs]
!!!URL-scan: https://rosdok.uni-rostock.de/mcrviewer/recordIdentifier/rosdok_ppn745177662/iview2/phys_0210.iview2?x=-2295.2751196172253&y=50.35406697739381&scale=0.23831242873432154&rotation=0&layout=singlePageLayout
!!!ENC: Anna Maria Matuszewska
!!!EEV: 2024/09/12
*-	*-
